X:1
T:I’ve Pitched My Tent in Beulah
T:I’ve Pitched My Tent in Beulah
T:Margaret Jenkins Harris
T:Margaret Jenkins Harris, 1908
T:Public Domain Courtesy of the Cyber Hymnal™
T:Public Domain Courtesy of the Cyber Hymnal™
C:Margaret Jenkins Harris
Z:Public Domain
Z:Courtesy of the Cyber Hymnal™
%%score ( 1 2 ) ( 3 4 )
L:1/8
Q:1/4=95
M:4/4
K:Db
V:1 treble 
V:2 treble 
V:3 bass 
V:4 bass 
V:1
 D | [DF][DF][DF][CE] [CE]DD[DF] | [FA]2 [GB]2 [FA]3 [FA] | [GB][Gd][Gd][GB] [GB] [FA]2 [FA] | %4
w: 1.~I|long a- go left E- gypt for the|prom- ised land, I|trust- ed in my Sav- ior, and|
w: 2.~I|fol- lowed close be- side Him, and the|land soon found, I|did not halt or trem- ble, for|
w: 3.~I|start- ed for the high- lands where the|fruits a- bound, I|pitched my tent near Heb- ron, there|
w: 4.~My|heart is so en- rap- tured as I|press a- long, Each|day I find new bless- ings which|
 [FA]>[GB] [FA][DF] [CE]3 D | [DF][DF][DF][CE] [CE]DD[DF] | [FA]2 [GB]2 [FA]3 [FA] | %7
w: to His guid- ing hand; He|led me out to vic- t’ry through the|great Red Sea, I|
w: Ca- naan I was bound; My|guide I ful- ly trus- ted, and He|led me in, I|
w: grapes of Es- chol found, With|milk and ho- ney flow- ing, and new|wine so free; I|
w: fill my heart with song; I’m|ev- er march- ing on- ward to that|land on high, Some|
 [GB][Gd][Gd][GB] [FA] [Ad]2 [Be] | [Af]>[Af] [Af][Ge] [Fd]3 ||"^Refrain" [FA] |: %10
w: sang a song of tri- umph, and|shou- ted, I am free!||
w: shout- ed, Hal- le- lu- jah! my|heart is free from sin!|You|
w: have no love for E- gypt, it|has no charms for me.||
w: day I’ll reach my man- sion that’s|build- ed in the sky.||
 [Fd][Ad][Gd][GB] [FA]3 z | [DF]>[DF] [CF][CE] D3 [FA] |1 [GB][Gd][Gd][GB] [FA]3 [Fd] | %13
w: |||
w: need not look for me,|down in E- gypt’s sand, For|I have pitched my tent far|
w: |||
w: |||
 [Fd][Fd][=Ge][Gf] [Ae]3 [_GA] :|2 [FA][Fd][Ad][Ge] || [Fd]2 [Gc]2 [Fd]3 |] %16
w: |||
w: up in Beu- lah land; You|tent far up in|Beu- lah land;|
w: |||
w: |||
V:2
 D | x5 DD x | x8 | x8 | x7 D | x5 DD x | x8 | x8 | x7 || x |: x8 | x4 D3 x |1 x8 | x8 :|2 x4 || %15
 x7 |] %16
V:3
 [D,F,] | [D,A,][D,A,][D,A,][A,,G,] [A,,G,][D,F,][D,F,][D,A,] | [D,D]2 [D,D]2 [D,D]3 [D,D] | %3
 [G,D][G,B,][G,B,][G,D] [D,D] [D,D]2 [D,D] | [D,D]>[D,D] [D,D][D,A,] [A,,A,]3 [D,F,] | %5
 [D,A,][D,A,][D,A,][A,,G,] [A,,G,][D,F,][D,F,][D,A,] | [D,D]2 [D,D]2 [D,D]3 [D,D] | %7
 [G,D][G,B,][G,B,][G,D] [D,D] [F,D]2 [G,D] | [A,D]>[A,D] [A,C][C,A,] [D,A,]3 || [D,D] |: %10
 [D,A,][F,D][G,B,][G,D] [D,D]3 z | [D,A,]>[F,A,] A,[A,,G,] [D,F,]3 [D,D] |1 %12
 [G,D][G,B,][G,B,][G,D] [D,D]3 [D,A,] | B,B,[E,D][E,D] [A,,C]3 A, :|2 [D,D][D,A,][F,D][G,B,] || %15
 A,2 [A,,A,]2 [D,A,]3 |] %16
V:4
 x | x8 | x8 | x8 | x8 | x8 | x8 | x8 | x7 || x |: x8 | x2 A, x5 |1 x8 | B,B, x4 A, x :|2 x4 || %15
 A,2 x5 |] %16

